X:1
T:Hastez vous
T:Thomas Crecquillon
T:Source : La fleur des chansons à 3---Louvain---P.Phalèse---1574. Editor : André Vierendeels (20/08/18) Notes : Original clefs G2, C1, C3 Original note values have been halved Editorial accidentals above the staff
T:Hastez vous
T:b
T:©
T:©
T:©
T:©
T:©
C:Thomas Crecquillon
Z:©
%%score [ 1 2 3 ]
L:1/8
Q:1/4=120
M:2/2
K:F
V:1 treble nm="Soprano" snm="S"
V:2 treble nm="Alto" snm="A"
V:3 treble-8 nm="Tenor" snm="T"
V:1
 d4 d2 d2 | c2 B2 c2 e2 | d4 G2 g2- | g2 f2 defd | e2 d2 cBAG | A4 B2 d2 | d2 d2 c2 B2 | %7
w: Has- tez vous|de moy fai- re|gra- ce, de|_ moy fai- * * *|* re gra- * * *|* ce, has-|tez vous de moy|
"^b" c2 e2 d4 | G2 d4 e2 | f2 ed c2 d2 | GABG A4 | B2 z d f2 e2 | g2 d2 f3 e | c2 e2 d2 f2- | %14
w: fai- te gra-|ce, de moy|fai- * * * re|gra- * * * *|ce, sans point u-|ser de cru- *|* au- té, sans|
 fecd ef g2- | g2 f4 ed | cA c2 G2 B2 | F2 A2 G3 A | Bc d4 c2 | d4 z4 | z2 d2 efge | f2 e d2 cde- | %22
w: _ _ _ _ _ _ point|_ u- * *||ser de cru- *|* * * au-|té,|car si mon a- mi-|ti- é pas- * se, car|
"^b" e d2 c d2 d2 | c2 B2 A2 G2 | F2 E2 D4 | z4 B4 | A2 G2 d4- | d2 c2 B2 AG | A4 G2 z d | %29
w: _ si mon a- mi-|ti- é pas- *|* * se,|à|Dieu com- man-|* de vo- stre _|beau- té, à|
 e2 g2 fedc | B2 A3 G G2- | G2 F2 G2 d2 | c2 B2 A2 f2- | f2 e2 d2 cB | c4 B2 B2 | %35
w: Dieu com- man- * * *|de vo- * stre|_ beau- té, à|Dieu com- man- de|_ vo- * stre _|beau- té, vo-|
"^-natural" c2 c2 B4 |] %36
w: stre beau- té.|
V:2
 z4 D4 | F2 G2 A2 G2 | G2 F2 B4 | A2 A2 FGAF | GA B2 A2 G2- |"^#" G2 F2 G2 D2 | DEFG A2 B2- | %7
w: Has-|tez vous de moy|fai- re gra-|ce, de moy _ _ _|_ _ fai- re gra-|* * ce, has-|tez _ _ _ _ vous|
 B2 A2 B2 F2 | B3 A G2 G2 | F2 G2 A2 B2- |"^#" BA G4 F2 | GG B2 A2 c2 | G2 B3 AFG | A2 G2 B2 F2- | %14
w: _ de _ moy|fai- * * re|gra- * * *||ce, sans point u- ser|de cru- * * *||
 FGAB c2 G2 | B2 A4 G2 | A4 z E G2 | D2 F4 E2 | GFED E4 | D2 G2 ABcA | B c2 B A2 GG | ABcA BGAB- | %22
w: |* * au-|té, sans point|u- ser de|cru- * * * au-|té, car si mon a- mi-|ti- é se- pas- se, car|si mon a- mi- ti- é se pas-|
 BA G2 F2 D2 | E2 G2 FEDC | B,A, A3 G G2- | G2 F2 G2 D2 | F2 E2 D2 B,C | DE F2 G2 E2 | D4 B4 | %29
w: * * * se, à|Dieu com- man- * * *|de _ vo- * stre|_ beauté, à Dieu|com- man- de vo- *|* * * stre beau-|té, à|
 A2 G2 d4- | d2 c2 B2 AG | A4 G2 z D | E2 G2 FEDC | B,A, A3 G G2- | G2 F2 G2 D2 | E2 E2 D4 |] %36
w: Dieu com- man-|* de vo- stre _|beau- té, à|Dieu com- man- * * *|de _ vo- * stre|_ beau- té, vo-|stre beau- té.|
V:3
 z8 | z8 | z8 | d4 d2 d2 | c2 B2 c2 e2 | d4 G2 GA | Bcde f2 d2 | c4 B4 | z2 G2 B2 c2 | %9
w: |||Has- tez vous|de moy fai- re|gra- ce, de _|me _ _ _ fai- re|gra- ce,|has- tez vous|
 d2 c2 c2 B2 |"^b" e4 d4 | G4 z4 | z4 z2 d2 | f2 e2 g2 d2 | f3 e c2 e2 |"^#" d3 c B4 | %16
w: de me fai- re|gra- *|ce,|sans|point u- ser de|cru- * * *|* * au-|
 A2 z A c2 G2 | B2 A2 c3 B | G2 B2 A4 | z4 d2 ef | gef g2 f e2 | ddef gefg- | gf e2 d2 z B | %23
w: té, sans point u-|ser de cru- *|* au- té,|car si mon|a- mi- ti- é pas- *|se, car si mon a- mi- ti- é|_ pas- * se à|
 A2 G2 d4- | d2 c2 B2 AG | A4 G2 G2 | A2 c2 Bcde | fg a3 g g2- |"^#" g2 f2 g4 | c2 e2 d2 Bc | %30
w: Dieu com- man-|* de vo- stre _|beau- té, à|Dieu com- man- * * *|* * * de vo-|* stre beau-||
 de f2 g2 e2 | d4 z2 B2 | A2 G2 d4- | d2 c2 B2 AG | A4 G2 G2 | c2 c2 G4 |] %36
w: |té, à|Dieu com- man|_ de vo- stre _|beau- té, vo-|stre beau- té.|

